X:1
T: Lady Banbury's Hornpipe
N:
C:
S:
A:
O:
R:
M:3/2
K:G
I:speed 200
%W: A
% voice 1 (1 lines, 20 notes)
K:G
M:3/2
L:1/16
B2 c2 |d4 d2 |e2 d4 |B2 c2 A4 |B2 c2 d2 |B2 d2 B2 |d6 |B2 G4 |B2 c2
%W:
% voice 1 (1 lines, 18 notes)
d4 |d2 e2 d4 |B2 c2 A4 |B2 c2 d2 |B2 d2 B2 |d6 |B2 G4 |g2 a2
%W: B
% voice 1 (1 lines, 17 notes)
b4 |a2 g2 a4 |f2 e2 d4 |g2 a2 b4 |a2 g2 a6 |f2 d4 |g2 a2
%W:
% voice 1 (1 lines, 16 notes)
b2 |a2 b2 a2 |g4 d4 |e4 B2 |c2 d2 B2 |d2 B2 d6 |B2 G4 |||
